app/dist/common/images/maxeon-solar-technologies.svg

<svg height="18" width="18" xmlns="http://www.w3.org/2000/svg"><path d="m0 0h18v18h-18z" fill="#0977c2"/><path d="m12.42 13h1.58v-4.82c0-1.13-.25-1.7-.39-1.96a2.23 2.23 0 0 0 -2.05-1.22c-.63 0-1.55.2-2.16 1.16a2.19 2.19 0 0 0 -3.71-.24l-.53-.92h-1.16v8h1.58v-4.37c0-.97.28-2 1.44-2 1.06 0 1.2.86 1.2 1.73v4.64h1.57v-4.37c0-.97.22-2 1.38-2 1.06 0 1.25.86 1.25 1.73z" fill="#fff"/></svg>

<!-- by TradingView --><svg xmlns="http://www.w3.org/2000/svg" width="18" height="18"><path fill="#0977C2" d="M0 0h18v18H0z"/><path d="M12.42 13H14V8.18c0-1.13-.25-1.7-.39-1.96A2.23 2.23 0 0011.56 5c-.63 0-1.55.2-2.16 1.16a2.19 2.19 0 00-3.71-.24L5.16 5H4v8h1.58V8.63c0-.97.28-2 1.44-2 1.06 0 1.2.86 1.2 1.73V13h1.57V8.63c0-.97.22-2 1.38-2 1.06 0 1.25.86 1.25 1.73V13z" fill="#fff"/></svg>
